uiw/user-add.svg

<svg xmlns="http://www.w3.org/2000/svg" viewBox="0 0 20 20" height="1em" width="1em">
  <path fill="#555" d="M9.46727453,0 C12.6508009,0 15.2315589,2.56640935 15.2315589,5.73223573 C15.2315589,7.47655509 14.448084,9.03890148 13.2119914,10.0902571 C13.4822032,10.2238219 13.7275682,10.3582958 13.9497532,10.4930662 C14.4279751,10.7831407 14.9241978,11.1427602 15.4394636,11.5717392 C15.732385,11.8156078 15.7710449,12.2494418 15.5258128,12.5407346 C15.2805808,12.8320274 14.8443213,12.8704723 14.5513999,12.6266038 C14.0866111,12.2396488 13.6455819,11.9200289 13.2293546,11.6675584 C12.8528749,11.4391975 12.384017,11.2042359 11.8239965,10.9643237 C11.1032931,11.2862459 10.3062136,11.4644715 9.46727453,11.4644715 C8.53944258,11.4644715 7.66281089,11.2464759 6.88634681,10.8591798 L6.84481353,10.878634 L6.84481353,10.878634 C4.89437187,11.634739 3.4715441,12.752929 2.55274945,14.2369477 C1.63088171,15.7259301 1.25429819,17.3895789 1.42222738,19.2506112 C1.45637018,19.6289901 1.17559676,19.9632511 0.795102385,19.9972041 C0.414608014,20.031157 0.078478173,19.7519447 0.0443353722,19.3735658 C-0.149844712,17.2216146 0.29386687,15.2614114 1.37469861,13.5156736 C2.32539098,11.9801342 3.72215476,10.7855333 5.54907869,9.93439694 C4.41355013,8.88953631 3.70299014,7.39340475 3.70299014,5.73223573 C3.70299014,2.56640935 6.28374817,0 9.46727453,0 Z M16.868159,12.6926826 C17.2480582,12.6926826 17.5560273,13.0023735 17.5560273,13.3843967 L17.556,15.136 L19.3082859,15.1366553 C19.690309,15.1366553 20,15.4446244 20,15.8245236 C20,16.2044227 19.690309,16.5123919 19.3082859,16.5123919 L17.556,16.512 L17.5560273,18.2646504 C17.5560273,18.6466736 17.2480582,18.9563646 16.868159,18.9563646 C16.4882598,18.9563646 16.1802907,18.6466736 16.1802907,18.2646504 L16.18,16.512 L14.4280321,16.5123919 C14.046009,16.5123919 13.736318,16.2044227 13.736318,15.8245236 C13.736318,15.4446244 14.046009,15.1366553 14.4280321,15.1366553 L16.18,15.136 L16.1802907,13.3843967 C16.1802907,13.0023735 16.4882598,12.6926826 16.868159,12.6926826 Z M9.46727453,1.37573658 C7.04779449,1.37573658 5.08641839,3.32620768 5.08641839,5.73223573 C5.08641839,8.13826378 7.04779449,10.0887349 9.46727453,10.0887349 C11.8867546,10.0887349 13.8481307,8.13826378 13.8481307,5.73223573 C13.8481307,3.32620768 11.8867546,1.37573658 9.46727453,1.37573658 Z"/>
</svg>

<svg xmlns="http://www.w3.org/2000/svg" viewBox="0 0 20 20" height="1em" width="1em">
  <path fill="#555" d="M9.467 0c3.184 0 5.765 2.566 5.765 5.732a5.706 5.706 0 0 1-2.02 4.358c.27.134.516.268.738.403.478.29.974.65 1.49 1.079a.685.685 0 0 1 .086.969.694.694 0 0 1-.975.086 11.05 11.05 0 0 0-1.322-.96 11.403 11.403 0 0 0-1.405-.703 5.76 5.76 0 0 1-2.357.5 5.767 5.767 0 0 1-2.58-.605l-.042.02c-1.95.756-3.373 1.874-4.292 3.358-.922 1.489-1.299 3.153-1.13 5.014a.689.689 0 0 1-.628.746.69.69 0 0 1-.75-.623c-.195-2.152.249-4.113 1.33-5.858.95-1.536 2.347-2.73 4.174-3.582a5.694 5.694 0 0 1-1.846-4.202C3.703 2.566 6.283 0 9.467 0Zm7.401 12.693c.38 0 .688.31.688.691v1.752h1.752a.69.69 0 0 1 .692.689.69.69 0 0 1-.692.687h-1.752v1.753a.69.69 0 0 1-.688.691.69.69 0 0 1-.688-.691v-1.753h-1.752a.69.69 0 0 1-.692-.687c0-.38.31-.688.692-.688l1.752-.001v-1.752a.69.69 0 0 1 .688-.691Zm-7.4-11.317c-2.42 0-4.382 1.95-4.382 4.356 0 2.406 1.962 4.357 4.381 4.357 2.42 0 4.381-1.95 4.381-4.357 0-2.406-1.961-4.356-4.38-4.356Z"/>
</svg>
